X: 17129
T: Helen Of Kirkconnel
R: barndance
M: 4/4
K: Dmajor
A|Ad2d- d3f|gf2A- A3A|B2dd- d2fg-|gf2B- B3A|
fa2e- ef2d-|dBAB- B3A|Bd2d- de2d-|dc2A- A3A|B2dd- dc2d-|d7||

